Numix-White/48/apps/dolphin.svg

<?xml version="1.0" encoding="UTF-8" standalone="no"?>
<svg
   xmlns:dc="http://purl.org/dc/elements/1.1/"
   xmlns:cc="http://creativecommons.org/ns#"
   xmlns:rdf="http://www.w3.org/1999/02/22-rdf-syntax-ns#"
   xmlns:svg="http://www.w3.org/2000/svg"
   xmlns="http://www.w3.org/2000/svg"
   xmlns:sodipodi="http://sodipodi.sourceforge.net/DTD/sodipodi-0.dtd"
   xmlns:inkscape="http://www.inkscape.org/namespaces/inkscape"
   viewBox="0 0 48 48"
   id="svg2"
   version="1.1"
   inkscape:version="0.91 r13725"
   sodipodi:docname="dolphin.svg">
  <metadata
     id="metadata39">
    <rdf:RDF>
      <cc:Work
         rdf:about="">
        <dc:format>image/svg+xml</dc:format>
        <dc:type
           rdf:resource="http://purl.org/dc/dcmitype/StillImage" />
      </cc:Work>
    </rdf:RDF>
  </metadata>
  <sodipodi:namedview
     pagecolor="#ffffff"
     bordercolor="#666666"
     borderopacity="1"
     objecttolerance="10"
     gridtolerance="10"
     guidetolerance="10"
     inkscape:pageopacity="0"
     inkscape:pageshadow="2"
     inkscape:window-width="1863"
     inkscape:window-height="1021"
     id="namedview37"
     showgrid="false"
     inkscape:zoom="4.9166667"
     inkscape:cx="24"
     inkscape:cy="24"
     inkscape:window-x="57"
     inkscape:window-y="31"
     inkscape:window-maximized="1"
     inkscape:current-layer="g27" />
  <defs
     id="defs4">
    <linearGradient
       id="linearGradient3813"
       gradientUnits="userSpaceOnUse"
       gradientTransform="matrix(0,-1,1,0,-1.5e-6,47.999998)"
       x1="1"
       x2="47">
      <stop
         style="stop-color:#2684da;stop-opacity:1"
         id="stop7" />
      <stop
         offset="1"
         style="stop-color:#3f96e5;stop-opacity:1"
         id="stop9" />
    </linearGradient>
  </defs>
  <g
     id="g11">
    <path
       d="m 36.31 5 c 5.859 4.062 9.688 10.831 9.688 18.5 c 0 12.426 -10.07 22.5 -22.5 22.5 c -7.669 0 -14.438 -3.828 -18.5 -9.688 c 1.037 1.822 2.306 3.499 3.781 4.969 c 4.085 3.712 9.514 5.969 15.469 5.969 c 12.703 0 23 -10.298 23 -23 c 0 -5.954 -2.256 -11.384 -5.969 -15.469 c -1.469 -1.475 -3.147 -2.744 -4.969 -3.781 z m 4.969 3.781 c 3.854 4.113 6.219 9.637 6.219 15.719 c 0 12.703 -10.297 23 -23 23 c -6.081 0 -11.606 -2.364 -15.719 -6.219 c 4.16 4.144 9.883 6.719 16.219 6.719 c 12.703 0 23 -10.298 23 -23 c 0 -6.335 -2.575 -12.06 -6.719 -16.219 z"
       style="opacity:0.05"
       id="path13" />
    <path
       d="m 41.28 8.781 c 3.712 4.085 5.969 9.514 5.969 15.469 c 0 12.703 -10.297 23 -23 23 c -5.954 0 -11.384 -2.256 -15.469 -5.969 c 4.113 3.854 9.637 6.219 15.719 6.219 c 12.703 0 23 -10.298 23 -23 c 0 -6.081 -2.364 -11.606 -6.219 -15.719 z"
       style="opacity:0.1"
       id="path15" />
    <path
       d="m 31.25 2.375 c 8.615 3.154 14.75 11.417 14.75 21.13 c 0 12.426 -10.07 22.5 -22.5 22.5 c -9.708 0 -17.971 -6.135 -21.12 -14.75 a 23 23 0 0 0 44.875 -7 a 23 23 0 0 0 -16 -21.875 z"
       style="opacity:0.2"
       id="path17" />
  </g>
  <path
     d="M 24,1 C 36.703,1 47,11.297 47,24 47,36.703 36.703,47 24,47 11.297,47 1,36.703 1,24 1,11.297 11.297,1 24,1 z"
     style="fill:#e6e6e6;fill-opacity:1"
     id="path19" />
  <g
     id="g21">
    <path
       d="m 40.03 7.531 c 3.712 4.084 5.969 9.514 5.969 15.469 0 12.703 -10.297 23 -23 23 c -5.954 0 -11.384 -2.256 -15.469 -5.969 4.178 4.291 10.01 6.969 16.469 6.969 c 12.703 0 23 -10.298 23 -23 0 -6.462 -2.677 -12.291 -6.969 -16.469 z"
       style="opacity:0.1"
       id="path23" />
  </g>
  <path
     d="m 14 16 c -0.5 0 -1 0.5 -1 1 0 5.667 0 11.333 0 17 l 24 0 0 -14.934 c 0 -0.533 -0.5 -1.066 -1 -1.066 -3.333 0 -6.667 0 -10 0 l -1 -2 z"
     style="fill:#000;opacity:0.1;fill-opacity:1;stroke:none"
     id="path25" />
  <g
     transform="scale(3.543307,3.543307)"
     id="g27">
    <path
       d="m 3.387 4.516 0 3.951 6.491 0 0 -1.976 -0.282 -1.693 -2.54 0 -0.282 -0.564 -3.104 0 c -0.141 0 -0.282 0.141 -0.282 0.282 z"
       style="fill:#00adff;fill-opacity:1;stroke:none"
       id="path29" />
    <rect
       y="5.08"
       x="3.951"
       height="1.129"
       width="3.104"
       style="fill:#fffdf0;fill-opacity:1;stroke:none"
       id="rect31" />
    <path
       d="m 10.16 5.099 0 4.215 -6.773 0 0 -3.951 3.387 0 0.282 -0.564 2.822 0 c 0.141 0 0.282 0.151 0.282 0.301 z"
       style="fill:#28cbff;fill-opacity:1;stroke:none"
       id="path33" />
    <path
       d="m 7.39 5.854 c -0.013 0 -0.022 0.003 -0.029 0.014 c -0.035 0.062 0.034 0.262 -0.019 0.367 -0.052 0.105 -0.052 0.131 -0.471 0.079 -0.419 -0.052 -1.047 0.131 -1.273 0.357 -0.229 0.227 -0.619 0.803 -0.7 1.135 -0.077 0.332 -0.042 0.349 0.063 0.298 0.104 -0.053 0.192 -0.516 0.809 -0.82 0.62 -0.305 0.909 -0.062 0.909 -0.062 c 0 0 -0.533 -0.071 -0.925 0.253 -0.392 0.324 -0.637 0.575 -0.628 0.675 0.009 0.096 0.043 0.076 0.106 0 0.061 -0.079 0.427 -0.559 0.863 -0.717 c 0.436 -0.159 0.619 -0.148 0.785 -0.061 0.166 0.087 0.202 0.172 -0.033 0.233 -0.237 0.063 -0.333 0.035 -0.333 0.035 c 0 0 0.201 0.183 0.487 0.183 0.289 0 0.464 -0.018 0.464 -0.018 0 0 0.714 0.742 0.898 0.891 0.182 0.148 0.385 0.078 0.385 -0.001 0 -0.087 -0.088 -0.332 -0.088 -0.332 0 0 0.183 -0.411 -0.028 -0.873 c -0.209 -0.463 -0.785 -0.941 -0.785 -0.941 c 0 0 -0.061 -0.262 -0.191 -0.437 c -0.106 -0.141 -0.213 -0.248 -0.268 -0.25 m -2.971 2.114 c -0.025 0 -0.052 0.008 -0.076 0.022 -0.201 0.113 -0.096 0.315 0.079 0.315 0.174 0 0.366 -0.071 0.366 -0.071 0 0 -0.187 -0.273 -0.369 -0.266 m 0.386 0.336 c 0 0 -0.391 0.06 -0.435 0.244 -0.044 0.183 0.164 0.236 0.295 0.14 0.131 -0.096 0.14 -0.384 0.14 -0.384 m 0 0"
       style="fill:#ffffff;opacity:0.6;fill-opacity:1;stroke:none;fill-rule:nonzero"
       id="path35" />
  </g>
</svg>

<?xml version="1.0" encoding="UTF-8" standalone="no"?>
<svg
   xmlns:dc="http://purl.org/dc/elements/1.1/"
   xmlns:cc="http://creativecommons.org/ns#"
   xmlns:rdf="http://www.w3.org/1999/02/22-rdf-syntax-ns#"
   xmlns:svg="http://www.w3.org/2000/svg"
   xmlns="http://www.w3.org/2000/svg"
   xmlns:sodipodi="http://sodipodi.sourceforge.net/DTD/sodipodi-0.dtd"
   xmlns:inkscape="http://www.inkscape.org/namespaces/inkscape"
   viewBox="0 0 48 48"
   id="svg2"
   version="1.1"
   inkscape:version="0.92.1 r"
   sodipodi:docname="dolphin.svg">
  <metadata
     id="metadata39">
    <rdf:RDF>
      <cc:Work
         rdf:about="">
        <dc:format>image/svg+xml</dc:format>
        <dc:type
           rdf:resource="http://purl.org/dc/dcmitype/StillImage" />
      </cc:Work>
    </rdf:RDF>
  </metadata>
  <sodipodi:namedview
     pagecolor="#ffffff"
     bordercolor="#666666"
     borderopacity="1"
     objecttolerance="10"
     gridtolerance="10"
     guidetolerance="10"
     inkscape:pageopacity="0"
     inkscape:pageshadow="2"
     inkscape:window-width="1848"
     inkscape:window-height="1023"
     id="namedview37"
     showgrid="false"
     inkscape:zoom="4.9166667"
     inkscape:cx="-6.8135592"
     inkscape:cy="24"
     inkscape:window-x="72"
     inkscape:window-y="28"
     inkscape:window-maximized="1"
     inkscape:current-layer="svg2" />
  <defs
     id="defs4">
    <linearGradient
       id="linearGradient3813"
       gradientUnits="userSpaceOnUse"
       gradientTransform="matrix(0,-1,1,0,-1.5e-6,47.999998)"
       x1="1"
       x2="47">
      <stop
         style="stop-color:#2684da;stop-opacity:1"
         id="stop7" />
      <stop
         offset="1"
         style="stop-color:#3f96e5;stop-opacity:1"
         id="stop9" />
    </linearGradient>
  </defs>
  <g
     id="g11">
    <path
       d="m 36.31 5 c 5.859 4.062 9.688 10.831 9.688 18.5 c 0 12.426 -10.07 22.5 -22.5 22.5 c -7.669 0 -14.438 -3.828 -18.5 -9.688 c 1.037 1.822 2.306 3.499 3.781 4.969 c 4.085 3.712 9.514 5.969 15.469 5.969 c 12.703 0 23 -10.298 23 -23 c 0 -5.954 -2.256 -11.384 -5.969 -15.469 c -1.469 -1.475 -3.147 -2.744 -4.969 -3.781 z m 4.969 3.781 c 3.854 4.113 6.219 9.637 6.219 15.719 c 0 12.703 -10.297 23 -23 23 c -6.081 0 -11.606 -2.364 -15.719 -6.219 c 4.16 4.144 9.883 6.719 16.219 6.719 c 12.703 0 23 -10.298 23 -23 c 0 -6.335 -2.575 -12.06 -6.719 -16.219 z"
       style="opacity:0.05"
       id="path13" />
    <path
       d="m 41.28 8.781 c 3.712 4.085 5.969 9.514 5.969 15.469 c 0 12.703 -10.297 23 -23 23 c -5.954 0 -11.384 -2.256 -15.469 -5.969 c 4.113 3.854 9.637 6.219 15.719 6.219 c 12.703 0 23 -10.298 23 -23 c 0 -6.081 -2.364 -11.606 -6.219 -15.719 z"
       style="opacity:0.1"
       id="path15" />
    <path
       d="m 31.25 2.375 c 8.615 3.154 14.75 11.417 14.75 21.13 c 0 12.426 -10.07 22.5 -22.5 22.5 c -9.708 0 -17.971 -6.135 -21.12 -14.75 a 23 23 0 0 0 44.875 -7 a 23 23 0 0 0 -16 -21.875 z"
       style="opacity:0.2"
       id="path17" />
  </g>
  <path
     d="M 24,1 C 36.703,1 47,11.297 47,24 47,36.703 36.703,47 24,47 11.297,47 1,36.703 1,24 1,11.297 11.297,1 24,1 z"
     style="fill:#ececec;fill-opacity:1"
     id="path19" />
  <g
     id="g21">
    <path
       d="m 40.03 7.531 c 3.712 4.084 5.969 9.514 5.969 15.469 0 12.703 -10.297 23 -23 23 c -5.954 0 -11.384 -2.256 -15.469 -5.969 4.178 4.291 10.01 6.969 16.469 6.969 c 12.703 0 23 -10.298 23 -23 0 -6.462 -2.677 -12.291 -6.969 -16.469 z"
       style="opacity:0.1"
       id="path23" />
  </g>
  <path
     d="m 10.200837,12.351964 c -0.6400701,0 -1.2801403,0.710377 -1.2801403,1.420754 0,8.051416 0,16.10141 0,24.152826 H 39.644068 V 16.707997 c 0,-0.757262 -0.64007,-1.514524 -1.28014,-1.514524 -4.266709,0 -8.534697,0 -12.801405,0 l -1.280141,-2.841509 z"
     style="opacity:0.1;fill:#000000;fill-opacity:1;stroke:none;stroke-width:1.348616"
     id="path25"
     inkscape:connector-curvature="0" />
  <g
     transform="matrix(4.5359307,0,0,5.0341692,-7.7211292,-10.380107)"
     id="g27">
    <path
       d="M 3.387,4.516 V 8.467 H 9.878 V 6.491 L 9.596,4.798 H 7.056 L 6.774,4.234 H 3.67 c -0.141,0 -0.282,0.141 -0.282,0.282 z"
       style="fill:#00adff;fill-opacity:1;stroke:none"
       id="path29"
       inkscape:connector-curvature="0" />
    <rect
       y="5.0799999"
       x="3.951"
       height="1.1289999"
       width="3.1040001"
       style="fill:#fffdf0;fill-opacity:1;stroke:none"
       id="rect31" />
    <path
       d="M 10.16,5.099 V 9.314 H 3.387 V 5.363 H 6.774 L 7.056,4.799 h 2.822 c 0.141,0 0.282,0.151 0.282,0.301 z"
       style="fill:#28cbff;fill-opacity:1;stroke:none"
       id="path33"
       inkscape:connector-curvature="0" />
    <path
       d="M 7.39,5.854 C 7.377,5.854 7.368,5.857 7.361,5.868 7.326,5.93 7.395,6.13 7.342,6.235 7.29,6.34 7.29,6.366 6.871,6.314 6.452,6.262 5.824,6.445 5.598,6.671 5.369,6.898 4.979,7.474 4.898,7.806 4.821,8.138 4.856,8.155 4.961,8.104 5.065,8.051 5.153,7.588 5.77,7.284 6.39,6.979 6.679,7.222 6.679,7.222 c 0,0 -0.533,-0.071 -0.925,0.253 C 5.362,7.799 5.117,8.05 5.126,8.15 5.135,8.246 5.169,8.226 5.232,8.15 5.293,8.071 5.659,7.591 6.095,7.433 6.531,7.274 6.714,7.285 6.88,7.372 7.046,7.459 7.082,7.544 6.847,7.605 6.61,7.668 6.514,7.64 6.514,7.64 c 0,0 0.201,0.183 0.487,0.183 0.289,0 0.464,-0.018 0.464,-0.018 0,0 0.714,0.742 0.898,0.891 C 8.545,8.844 8.748,8.774 8.748,8.695 8.748,8.608 8.66,8.363 8.66,8.363 8.66,8.363 8.843,7.952 8.632,7.49 8.423,7.027 7.847,6.549 7.847,6.549 7.847,6.549 7.786,6.287 7.656,6.112 7.55,5.971 7.443,5.864 7.388,5.862 M 4.417,7.976 C 4.392,7.976 4.365,7.984 4.341,7.998 4.14,8.111 4.245,8.313 4.42,8.313 c 0.174,0 0.366,-0.071 0.366,-0.071 0,0 -0.187,-0.273 -0.369,-0.266 m 0.386,0.336 c 0,0 -0.391,0.06 -0.435,0.244 C 4.324,8.739 4.532,8.792 4.663,8.696 4.794,8.6 4.803,8.312 4.803,8.312 m 0,0"
       style="opacity:0.6;fill:#ffffff;fill-opacity:1;fill-rule:nonzero;stroke:none"
       id="path35"
       inkscape:connector-curvature="0" />
  </g>
</svg>
